X: 12
T: Praeludia organi op. 5 – Moderato
C: Franciszek Walczyński
%%abc-version 2.0
%%abcx-abcm2ps-target-version 5.9.1 (29 Sep 2008)
%%abc-creator hum2abc beta
%%abcx-conversion-date 2021/10/04 07:38:41
%%abc-edited-by Kamil Watkowski
%%abcx-initial-encoding-date 2021-08-09
%%humdrum-veritas 2420473830
%%humdrum-veritas-data 4255642138
%%linebreak <none>
%%barnumbers 0
L: 1/4
M: C
N: Derived from pl-kozmzk--mzk-m-159--001_walczynski-franciszek--praeludia-organi-op-5-moderato.krn
%%staves {1 2}
V: 1 clef=treble
V: 2 clef=bass
K: C
[V:1] z4 & z4 | 
[V:2] z4 & C,>D, E,/B,,/C,/A,/ | 
[V:1] z4 & z4 | 
[V:2] z4 & G,2^F,=F, | 
[V:1] z4 & z4 | 
[V:2] z4 & E,2^F,2 | 
[V:1] z4 & z4 | 
[V:2] G,>A, B,/F,/G,/E/ & G,^F,G,/^D,/E,/C,/ | 
[V:1] z4 & z4 | 
[V:2] D2^C=C & B,,=D,E,^F, | 
[V:1] z4 & z4 | 
[V:2] B,D=G,A,/B,/ & G,2F,2 | 
[V:1] z4 & C>D E/B,/C/A/ | 
[V:2] G,2-G,3/C/ & E,B,,C,/D,/E,/F,/ | 
[V:1] z4 & G2^F=F | 
[V:2] B,DCD & G,B,A,B, | 
[V:1] z4 & EG2^F | 
[V:2] CDC2 & CB,A,2 | 
[V:1] G>A B/^F/G/e/ & D3G | 
[V:2] B,A,G,/C/D/C/ & G,^F,E,/A,/B,/C/ | 
[V:1] d2^c=c & A2GD- | 
[V:2] A,F,G,A, & ^F,D,E,F, | 
[V:1] BdGA/B/ & D4 | 
[V:2] G,A,B,A,/G,/ & G,^F,=F,2 | 
[V:1] c2d2 & G2A2 | 
[V:2] G,C2B,/A,/ & E,2F,2 | 
[V:1] e2-!fermata!e/B/c/a/ & ^G2-G/ z/z | 
[V:2] B,2-B,/ z/z & E,2-!fermata!E,/ z/z | 
[V:1] g2^f=f & B2AG | 
[V:2] zDCD & xG,A,B, | 
[V:1] egcf & G2=F2 | 
[V:2] CC3- & C_B,A,_A, | 
[V:1] e3d & G^F=F2 | 
[V:2] C=A,B,2 & G,4 | 
[V:1] c4- & EC/D/ E/C/D/E/ | 
[V:2] CB,_B,2- & C,4- | 
[V:1] c4- & F3C/F/- | 
[V:2] B,A,/G,/ A,/F,/G,/_A,/ & C,4- | 
[V:1] !fermata!c4 & FE/D/!fermata!E2 |]  
[V:2] G,4 & !fermata!C,4 |]  


